TV/Source/Sky Sport 3.svg

<svg height="8.749912mm" viewBox="0 0 46.44875 31.003626" width="13.10887mm" xmlns="http://www.w3.org/2000/svg" xmlns:xlink="http://www.w3.org/1999/xlink"><clipPath id="a"><path d="m390.955 498.869h82.8v24.803h-82.8z"/></clipPath><clipPath id="b"><path d="m413.775 498.869h37.159v24.803h-37.159z"/></clipPath><g clip-path="url(#b)" transform="matrix(1.25 0 0 -1.25 -517.21875 654.59)"><g transform="translate(440.9151 515.262)"><path d="m0 0c0-4.644-3.766-8.41-8.41-8.41-4.645 0-8.41 3.766-8.41 8.41 0 4.646 3.765 8.411 8.41 8.411 4.644 0 8.41-3.765 8.41-8.411" fill="#231f20"/></g><g transform="translate(431.288 513.8242)"><path d="m0 0c .411.525.604.696.604 1.154 0 .457-.053.549-.781 1.482-1.174 1.504-2.735 3.331-3.553 3.642-.191.072-.293.111-.394.12-1.209-1.301-1.95-3.044-1.95-4.96 0-1.908.734-3.645 1.935-4.945.036-.002.074-.004.108-.004.213 0 .294.065.515.164.692.311 2.912 2.581 3.516 3.347m8.508 1.438c0 1.445-.422 2.789-1.146 3.921.064-.232.074-.439.044-.729-.089-.86-.373-1.701-.532-2.121-.16-.422-.355-1.044-.338-1.318.017-.275.071-.329.143-.659.071-.329.656-1.482.692-2.432.012-.343-.007-.492-.053-.651.751 1.145 1.19 2.515 1.19 3.989m-3.232-4.436c-.302.348-1.013.988-1.688 1.024-.676.037-1.114-.393-2.273-.952-1.368-.657-2.523-.987-3.019-1.134-.434-.127-1.137-.242-1.57-.244 1.238-.97 2.796-1.549 4.491-1.549 1.903 0 3.634.729 4.933 1.922-.129.199-.601.617-.874.933m-8.595 10.143c.234.003.49-.019 1.029-.099.622-.092 2.782-.88 4.386-1.884.816-.513 1.262-.623 1.599-.623.229 0 .585.185 1.42.952.817.749.916.901 1.031 1.099.041.07.069.111.086.136-1.307 1.241-3.071 2.004-5.015 2.004-1.715 0-3.291-.594-4.536-1.585" fill="#ed1443"/></g><g transform="translate(431.3499 502.7121)"><path d="m0 0c-.306.189-1.232.35-1.601.441-.253.061-.56.101-.496.273.046.122.228.192.51.195.247.001 1.807-.001 2.075 0 .148 0 .356.131.511.72.083.318-.035.32-.218.32h-2.709c-.423 0-.808-.247-1.114-.646-.306-.4-.467-.88-.417-1.154.061-.326.326-.5.694-.625.367-.128.93-.245 1.203-.319.296-.077.777-.11.697-.289-.058-.129-.128-.201-.417-.195-.334.007-1.83.003-2.121 0-.327-.003-.484-.282-.609-.762-.078-.291-.014-.293.266-.293h2.284c.424 0 .822.098 1.085.254.177.107.609.367.765.96.198.752-.066.919-.388 1.12m-8.006 1.018-.979.966h-.008l-1.452-1.397.378 1.397h-4.984c-.643 0-1.214-.483-1.214-1.091 0-.291.12-.556.315-.753l.96-.894c.063-.065.096-.14.096-.203 0-.149-.095-.265-.344-.265h-2.024l-.313-1.145h3.386c.644 0 1.217.479 1.218 1.088 0 .291-.12.557-.315.752l-.972.908c-.054.055-.084.125-.084.189 0 .15.106.263.297.263h2.056l-.857-3.2h1.61l.366 1.372 1.429-1.372h.007l.98.966-1.034.993zm3.088.966-1.042-1.004-1.042 1.004h-.014l-.971-.968 1.032-.992-1.483-1.426.987-.965 4.525 4.351zm16.359-1.213c.156.593-.138.854-.261.96-.18.157-.526.255-.949.255h-1.733c-.422 0-.822-.098-1.083-.255-.178-.106-.61-.367-.767-.96l-.005-.021-.495-1.87c-.156-.593.138-.853.259-.96.182-.156.527-.254.95-.254h1.735c.422 0 .821.098 1.083.254.177.107.61.367.766.96l.305 1.157zm-1.352-.057-.475-1.799c-.042-.177-.083-.194-.416-.194-.072 0-.831.002-.999.001-.178-.001-.319-.001-.39-.001-.334 0-.365.017-.315.194l.475 1.799c.044.179.084.195.418.195.071 0 .135 0 .316-.001.167-.002 1 .001 1.072.001.332 0 .366-.016.314-.195m5.634 1.123c.007.084-.053.149-.148.149h-.173-1.535c-.424 0-.821-.098-1.085-.255-.176-.106-.61-.367-.765-.96l-.006-.021-.079-.303v-.001l-.68-2.571c-.049-.182.104-.189.289-.189h.682c.185 0 .378.148.426.33l.712 2.698c.043.179.084.195.418.195.069 0 .209 0 .389-.001h.95v.002h.161c.126 0 .307.307.396.64.028.104.043.201.048.287m-9.82-.129c-.179.157-.526.257-.949.257h-.152c-.043.003-.075.006-.094.006h-1.926v-.001h-.718c-.02 0-.04-.003-.061-.007-.197-.002-.264-.027-.327-.232-.016-.029-.031-.059-.039-.091l-1.397-5.294c-.048-.182.103-.189.289-.189h.681c.187 0 .379.148.427.329l.31 1.18h1.872c.423 0 .821.098 1.084.254.178.107.609.367.766.96l.494 1.87c.155.592-.138.853-.26.958m-1.086-.994-.475-1.799c-.043-.177-.084-.194-.418-.194-.197 0-1.069.001-1.698.001l.578 2.184c.626.002 1.501.003 1.699.003.334 0 .365-.016.314-.195m14.618 1.233h-1.784l.416 1.574c.048.181-.01.259-.197.259h-.755c-.186 0-.377-.148-.426-.33l-1.236-4.65c-.003-.012-.003-.022-.004-.031h-.003c-.014-.082-.011-.098-.011-.171 0-.379.194-.56.286-.647.176-.166.507-.259.906-.259h1.147.479l.154.003c.086.002.305.364.382.675.025.099.043.198.046.285v.01c0 .024-.007.043-.02.058-.018.022-.046.026-.281.026h-1.733l.005.013.573 2.148h1.77c.125 0 .297.27.385.603.028.104.043.201.048.287h.002c.006.084-.055.147-.149.147" fill="#fff"/></g></g><path d="m0 0 1.001-.988.994.991z" fill="#6b6969" transform="matrix(1.25 0 0 -1.25 10.72237 23.70237)"/><path d="m0 0 2.009.002-1.008.984z" fill="#6b6969" transform="matrix(1.25 0 0 -1.25 10.15875 29.17212)"/><g clip-path="url(#a)" transform="matrix(1.25 0 0 -1.25 -517.21875 654.59)"><g transform="translate(432.2923 512.4869)"><path d="m0 0c-.16 0-.261.128-.225.282l.171.742c.036.155.196.282.356.282h2.218c.159 0 .339.302.376.458l.017.077c.036.155-.066.281-.225.281h-1.742c-.159 0-.261.129-.225.284l.109.472c.036.155.196.282.356.282h1.742c.16 0 .319.127.355.283l.014.216c.036.157-.065.284-.226.284h-2.175c-.159 0-.259.127-.224.282l.172.741c.035.155.195.284.355.284h2.584c.16 0 .421-.015.58-.031 0 0 .348-.037.516-.321.133-.216.117-.545.077-.716l-.065-.284c-.037-.156-.113-.544-.175-.692 0 0-.031-.068-.172-.241-.121-.141-.36-.319-.364-.335-.002-.007.172-.171.222-.306.072-.202.077-.365.021-.612l-.112-.571c-.036-.155-.126-.398-.201-.539 0 0-.047-.086-.225-.259-.299-.275-.585-.343-.944-.343z" fill="#ddd"/></g></g></svg>

<?xml version="1.0" encoding="UTF-8" standalone="no"?>
<!-- Created with Inkscape (http://www.inkscape.org/) -->

<svg
   xmlns:dc="http://purl.org/dc/elements/1.1/"
   xmlns:cc="http://creativecommons.org/ns#"
   xmlns:rdf="http://www.w3.org/1999/02/22-rdf-syntax-ns#"
   xmlns:svg="http://www.w3.org/2000/svg"
   xmlns="http://www.w3.org/2000/svg"
   xmlns:sodipodi="http://sodipodi.sourceforge.net/DTD/sodipodi-0.dtd"
   xmlns:inkscape="http://www.inkscape.org/namespaces/inkscape"
   width="13.10887mm"
   height="8.7499123mm"
   viewBox="0 0 46.44875 31.003626"
   id="svg90323"
   version="1.1"
   inkscape:version="0.91 r13725"
   sodipodi:docname="Sky Sport 3.svg">
  <defs
     id="defs90325">
    <clipPath
       clipPathUnits="userSpaceOnUse"
       id="clipPath2842">
      <path
         d="m 390.955,498.869 82.8,0 0,24.803 -82.8,0 0,-24.803 z"
         id="path2844"
         inkscape:connector-curvature="0" />
    </clipPath>
    <clipPath
       clipPathUnits="userSpaceOnUse"
       id="clipPath2814">
      <path
         d="m 413.775,498.869 37.159,0 0,24.803 -37.159,0 0,-24.803 z"
         id="path2816"
         inkscape:connector-curvature="0" />
    </clipPath>
  </defs>
  <sodipodi:namedview
     id="base"
     pagecolor="#ffffff"
     bordercolor="#666666"
     borderopacity="1.0"
     inkscape:pageopacity="0.0"
     inkscape:pageshadow="2"
     inkscape:zoom="11.2"
     inkscape:cx="-13.467926"
     inkscape:cy="17.399977"
     inkscape:document-units="px"
     inkscape:current-layer="layer1"
     showgrid="false"
     fit-margin-top="0"
     fit-margin-left="0"
     fit-margin-right="0"
     fit-margin-bottom="0"
     inkscape:window-width="1920"
     inkscape:window-height="1017"
     inkscape:window-x="-8"
     inkscape:window-y="-8"
     inkscape:window-maximized="1" />
  <metadata
     id="metadata90328">
    <rdf:RDF>
      <cc:Work
         rdf:about="">
        <dc:format>image/svg+xml</dc:format>
        <dc:type
           rdf:resource="http://purl.org/dc/dcmitype/StillImage" />
        <dc:title></dc:title>
      </cc:Work>
    </rdf:RDF>
  </metadata>
  <g
     inkscape:label="Layer 1"
     inkscape:groupmode="layer"
     id="layer1"
     transform="translate(-319.63277,-342.57468)">
    <g
       transform="matrix(1.25,0,0,-1.25,-197.58598,997.16468)"
       id="g2810">
      <g
         id="g2812"
         clip-path="url(#clipPath2814)">
        <g
           id="g2818"
           transform="translate(440.9151,515.262)">
          <path
             d="m 0,0 c 0,-4.644 -3.766,-8.41 -8.41,-8.41 -4.645,0 -8.41,3.766 -8.41,8.41 0,4.646 3.765,8.411 8.41,8.411 C -3.766,8.411 0,4.646 0,0"
             style="fill:#231f20;fill-opacity:1;fill-rule:nonzero;stroke:none"
             id="path2820"
             inkscape:connector-curvature="0" />
        </g>
        <g
           id="g2822"
           transform="translate(431.288,513.8242)">
          <path
             d="m 0,0 c 0.411,0.525 0.604,0.696 0.604,1.154 0,0.457 -0.053,0.549 -0.781,1.482 -1.174,1.504 -2.735,3.331 -3.553,3.642 -0.191,0.072 -0.293,0.111 -0.394,0.12 -1.209,-1.301 -1.95,-3.044 -1.95,-4.96 0,-1.908 0.734,-3.645 1.935,-4.945 0.036,-0.002 0.074,-0.004 0.108,-0.004 0.213,0 0.294,0.065 0.515,0.164 C -2.824,-3.036 -0.604,-0.766 0,0 M 8.508,1.438 C 8.508,2.883 8.086,4.227 7.362,5.359 7.426,5.127 7.436,4.92 7.406,4.63 7.317,3.77 7.033,2.929 6.874,2.509 6.714,2.087 6.519,1.465 6.536,1.191 6.553,0.916 6.607,0.862 6.679,0.532 6.75,0.203 7.335,-0.95 7.371,-1.9 7.383,-2.243 7.364,-2.392 7.318,-2.551 c 0.751,1.145 1.19,2.515 1.19,3.989 M 5.276,-2.998 C 4.974,-2.65 4.263,-2.01 3.588,-1.974 2.912,-1.937 2.474,-2.367 1.315,-2.926 -0.053,-3.583 -1.208,-3.913 -1.704,-4.06 c -0.434,-0.127 -1.137,-0.242 -1.57,-0.244 1.238,-0.97 2.796,-1.549 4.491,-1.549 1.903,0 3.634,0.729 4.933,1.922 -0.129,0.199 -0.601,0.617 -0.874,0.933 M -3.319,7.145 C -3.085,7.148 -2.829,7.126 -2.29,7.046 -1.668,6.954 0.492,6.166 2.096,5.162 2.912,4.649 3.358,4.539 3.695,4.539 3.924,4.539 4.28,4.724 5.115,5.491 5.932,6.24 6.031,6.392 6.146,6.59 6.187,6.66 6.215,6.701 6.232,6.726 4.925,7.967 3.161,8.73 1.217,8.73 -0.498,8.73 -2.074,8.136 -3.319,7.145"
             style="fill:#ed1443;fill-opacity:1;fill-rule:nonzero;stroke:none"
             id="path2824"
             inkscape:connector-curvature="0" />
        </g>
        <g
           id="g2826"
           transform="translate(431.3499,502.7121)">
          <path
             d="m 0,0 c -0.306,0.189 -1.232,0.35 -1.601,0.441 -0.253,0.061 -0.56,0.101 -0.496,0.273 0.046,0.122 0.228,0.192 0.51,0.195 0.247,0.001 1.807,-0.001 2.075,0 0.148,0 0.356,0.131 0.511,0.72 0.083,0.318 -0.035,0.32 -0.218,0.32 l -2.709,0 c -0.423,0 -0.808,-0.247 -1.114,-0.646 -0.306,-0.4 -0.467,-0.88 -0.417,-1.154 0.061,-0.326 0.326,-0.5 0.694,-0.625 0.367,-0.128 0.93,-0.245 1.203,-0.319 0.296,-0.077 0.777,-0.11 0.697,-0.289 -0.058,-0.129 -0.128,-0.201 -0.417,-0.195 -0.334,0.007 -1.83,0.003 -2.121,0 -0.327,-0.003 -0.484,-0.282 -0.609,-0.762 -0.078,-0.291 -0.014,-0.293 0.266,-0.293 l 2.284,0 c 0.424,0 0.822,0.098 1.085,0.254 0.177,0.107 0.609,0.367 0.765,0.96 C 0.586,-0.368 0.322,-0.201 0,0 m -8.006,1.018 -0.979,0.966 -0.008,0 -1.452,-1.397 0.378,1.397 -4.984,0 c -0.643,0 -1.214,-0.483 -1.214,-1.091 0,-0.291 0.12,-0.556 0.315,-0.753 l 0.96,-0.894 c 0.063,-0.065 0.096,-0.14 0.096,-0.203 0,-0.149 -0.095,-0.265 -0.344,-0.265 l -2.024,0 -0.313,-1.145 3.386,0 c 0.644,0 1.217,0.479 1.218,1.088 0,0.291 -0.12,0.557 -0.315,0.752 l -0.972,0.908 c -0.054,0.055 -0.084,0.125 -0.084,0.189 0,0.15 0.106,0.263 0.297,0.263 l 2.056,0 -0.857,-3.2 1.61,0 0.366,1.372 1.429,-1.372 0.007,0 0.98,0.966 -1.034,0.993 1.482,1.426 z m 3.088,0.966 -1.042,-1.004 -1.042,1.004 -0.014,0 -0.971,-0.968 1.032,-0.992 -1.483,-1.426 0.987,-0.965 4.525,4.351 -1.992,0 z M 11.441,0.771 C 11.597,1.364 11.303,1.625 11.18,1.731 11,1.888 10.654,1.986 10.231,1.986 l -1.733,0 C 8.076,1.986 7.676,1.888 7.415,1.731 7.237,1.625 6.805,1.364 6.648,0.771 L 6.643,0.75 6.148,-1.12 c -0.156,-0.593 0.138,-0.853 0.259,-0.96 0.182,-0.156 0.527,-0.254 0.95,-0.254 l 1.735,0 c 0.422,0 0.821,0.098 1.083,0.254 0.177,0.107 0.61,0.367 0.766,0.96 l 0.305,1.157 0.195,0.734 z M 10.089,0.714 9.614,-1.085 C 9.572,-1.262 9.531,-1.279 9.198,-1.279 c -0.072,0 -0.831,0.002 -0.999,10e-4 -0.178,-10e-4 -0.319,-10e-4 -0.39,-10e-4 -0.334,0 -0.365,0.017 -0.315,0.194 l 0.475,1.799 c 0.044,0.179 0.084,0.195 0.418,0.195 0.071,0 0.135,0 0.316,-0.001 0.167,-0.002 1,0.001 1.072,0.001 0.332,0 0.366,-0.016 0.314,-0.195 m 5.634,1.123 0,0 C 15.73,1.921 15.67,1.986 15.575,1.986 l -0.173,0 0,0 -1.535,0 c -0.424,0 -0.821,-0.098 -1.085,-0.255 -0.176,-0.106 -0.61,-0.367 -0.765,-0.96 L 12.011,0.75 11.932,0.447 l 0,-0.001 -0.68,-2.571 c -0.049,-0.182 0.104,-0.189 0.289,-0.189 l 0.682,0 c 0.185,0 0.378,0.148 0.426,0.33 l 0.712,2.698 c 0.043,0.179 0.084,0.195 0.418,0.195 0.069,0 0.209,0 0.389,-0.001 l 0.95,0 0,0.002 0.161,0 c 0.126,0 0.307,0.307 0.396,0.64 0.028,0.104 0.043,0.201 0.048,0.287 M 5.903,1.708 C 5.724,1.865 5.377,1.965 4.954,1.965 l -0.152,0 C 4.759,1.968 4.727,1.971 4.708,1.971 l -1.926,0 0,-0.001 -0.718,0 C 2.044,1.97 2.024,1.967 2.003,1.963 1.806,1.961 1.739,1.936 1.676,1.731 1.66,1.702 1.645,1.672 1.637,1.64 L 0.24,-3.654 C 0.192,-3.836 0.343,-3.843 0.529,-3.843 l 0.681,0 c 0.187,0 0.379,0.148 0.427,0.329 l 0.31,1.18 1.872,0 c 0.423,0 0.821,0.098 1.084,0.254 0.178,0.107 0.609,0.367 0.766,0.96 L 6.163,0.75 C 6.318,1.342 6.025,1.603 5.903,1.708 M 4.817,0.714 4.342,-1.085 C 4.299,-1.262 4.258,-1.279 3.924,-1.279 c -0.197,0 -1.069,10e-4 -1.698,10e-4 l 0.578,2.184 c 0.626,0.002 1.501,0.003 1.699,0.003 0.334,0 0.365,-0.016 0.314,-0.195 m 14.618,1.233 -1.784,0 0.416,1.574 C 18.115,3.702 18.057,3.78 17.87,3.78 l -0.755,0 c -0.186,0 -0.377,-0.148 -0.426,-0.33 L 15.453,-1.2 C 15.45,-1.212 15.45,-1.222 15.449,-1.231 l -0.003,0 c -0.014,-0.082 -0.011,-0.098 -0.011,-0.171 0,-0.379 0.194,-0.56 0.286,-0.647 0.176,-0.166 0.507,-0.259 0.906,-0.259 l 1.147,0 0.479,0 0.154,0.003 c 0.086,0.002 0.305,0.364 0.382,0.675 0.025,0.099 0.043,0.198 0.046,0.285 l 0,0.01 c 0,0.024 -0.007,0.043 -0.02,0.058 -0.018,0.022 -0.046,0.026 -0.281,0.026 l -1.733,0 0.005,0.013 0.573,2.148 1.77,0 c 0.125,0 0.297,0.27 0.385,0.603 0.028,0.104 0.043,0.201 0.048,0.287 l 0.002,0 c 0.006,0.084 -0.055,0.147 -0.149,0.147"
             style="fill:#ffffff;fill-opacity:1;fill-rule:nonzero;stroke:none"
             id="path2828"
             inkscape:connector-curvature="0" />
        </g>
      </g>
    </g>
    <g
       id="g2830"
       transform="matrix(1.25,0,0,-1.25,330.35514,366.27705)">
      <path
         d="M 0,0 1.001,-0.988 1.995,0.003 0,0 Z"
         style="fill:#6b6969;fill-opacity:1;fill-rule:nonzero;stroke:none"
         id="path2832"
         inkscape:connector-curvature="0" />
    </g>
    <g
       id="g2834"
       transform="matrix(1.25,0,0,-1.25,329.79152,371.7468)">
      <path
         d="M 0,0 2.009,0.002 1.001,0.986 0,0 Z"
         style="fill:#6b6969;fill-opacity:1;fill-rule:nonzero;stroke:none"
         id="path2836"
         inkscape:connector-curvature="0" />
    </g>
    <g
       transform="matrix(1.25,0,0,-1.25,-197.58598,997.16468)"
       id="g2838">
      <g
         id="g2840"
         clip-path="url(#clipPath2842)">
        <g
           id="g2846"
           transform="translate(432.2923,512.4869)">
          <path
             d="m 0,0 c -0.16,0 -0.261,0.128 -0.225,0.282 l 0.171,0.742 c 0.036,0.155 0.196,0.282 0.356,0.282 l 2.218,0 c 0.159,0 0.339,0.302 0.376,0.458 L 2.913,1.841 C 2.949,1.996 2.847,2.122 2.688,2.122 l -1.742,0 c -0.159,0 -0.261,0.129 -0.225,0.284 L 0.83,2.878 C 0.866,3.033 1.026,3.16 1.186,3.16 l 1.742,0 c 0.16,0 0.319,0.127 0.355,0.283 L 3.297,3.659 C 3.333,3.816 3.232,3.943 3.071,3.943 l -2.175,0 C 0.737,3.943 0.637,4.07 0.672,4.225 L 0.844,4.966 C 0.879,5.121 1.039,5.25 1.199,5.25 l 2.584,0 c 0.16,0 0.421,-0.015 0.58,-0.031 0,0 0.348,-0.037 0.516,-0.321 C 5.012,4.682 4.996,4.353 4.956,4.182 L 4.891,3.898 C 4.854,3.742 4.778,3.354 4.716,3.206 4.716,3.206 4.685,3.138 4.544,2.965 4.423,2.824 4.184,2.646 4.18,2.63 4.178,2.623 4.352,2.459 4.402,2.324 4.474,2.122 4.479,1.959 4.423,1.712 L 4.311,1.141 C 4.275,0.986 4.185,0.743 4.11,0.602 4.11,0.602 4.063,0.516 3.885,0.343 3.586,0.068 3.3,0 2.941,0 L 0,0 Z"
             style="fill:#dddddd;fill-opacity:1;fill-rule:nonzero;stroke:none"
             id="path2848"
             inkscape:connector-curvature="0" />
        </g>
      </g>
    </g>
  </g>
</svg>
